X:23
T:The Durrow Reel
T:The Boogie Reel
C:John Nolan
S:Josephine Marsh
M:4/4
L:1/8
R:reel
K:D
D2 FA d3 A|BAFA Bc d2|D2 FA defe|dcBA BE E2|
D2 FA d3 e|fdef g2 fg|afdf gece|1dfec d2 FE:|2dfec d2 gf|:
eA (3AAA EA (3AAA|edef g2 ag|fd (3ddd Ad (3ddd|
fgaf d2 cd|Beed efed|cdef g2 fg|afdf gece|1dfec d2 gf:|
2dfec dBAF||
"variation, 3rd bar of B part" |fd (3ddd d'd (3ddd|  
